modules/framework7-icons/icons/phone_round_fill.svg

<?xml version="1.0" encoding="UTF-8"?>
<svg width="50px" height="50px" viewBox="0 0 50 50" version="1.1" xmlns="http://www.w3.org/2000/svg" xmlns:xlink="http://www.w3.org/1999/xlink">
    <!-- Generator: Sketch 40.1 (33804) - http://www.bohemiancoding.com/sketch -->
    <title>phone_round_fill</title>
    <desc>Created with Sketch.</desc>
    <defs></defs>
    <g id="Page-1" stroke="none" stroke-width="1" fill="none" fill-rule="evenodd">
        <g id="phone_round_fill" fill="#000000">
            <path d="M25,50 C38.8071187,50 50,38.8071187 50,25 C50,11.1928813 38.8071187,0 25,0 C11.1928813,0 0,11.1928813 0,25 C0,38.8071187 11.1928813,50 25,50 Z M12.1985897,17.124431 C11.9912147,16.0474488 12.5055707,14.5914055 13.34919,13.8707691 L15.205236,12.2852975 C16.0480699,11.5653319 17.2603075,11.7015019 17.9194718,12.5984598 L20.9572842,16.7321639 C21.6134813,17.6250843 21.6031067,19.0658264 20.938738,19.9440365 L21.2753319,19.4991026 C20.2757818,20.8203794 20.4063517,22.8501424 21.5601865,24.0257957 L26.6334795,29.195022 C27.4038183,29.9799274 28.7427986,30.0871471 29.6361366,29.425647 L29.7133063,29.3685043 C30.6012893,28.7109696 32.0838581,28.6392884 33.0281612,29.2104836 L37.1368329,31.6957593 C38.0795938,32.2660216 38.5118897,33.5572321 38.0970683,34.5876573 C38.0970683,34.5876573 37.6477809,35.7233314 37.5214624,35.9822967 C36.6965682,37.6734096 34.7524415,38.3641985 34.7524415,38.3641985 C34.7524415,38.3641985 27.8565505,38.3641985 20.1834887,30.616219 C12.510427,22.8682396 12.1985897,17.124431 12.1985897,17.124431 Z" id="Combined-Shape"></path>
        </g>
    </g>
</svg>

<svg width="50" height="50" xmlns="http://www.w3.org/2000/svg"><path d="M25 50c13.807 0 25-11.193 25-25S38.807 0 25 0 0 11.193 0 25s11.193 25 25 25zM12.199 17.124c-.208-1.077.307-2.533 1.15-3.253l1.856-1.586a1.834 1.834 0 0 1 2.714.313l3.038 4.134c.656.893.646 2.334-.018 3.212l.336-.445c-1 1.321-.869 3.351.285 4.527l5.073 5.169c.77.785 2.11.892 3.003.23l.077-.056c.888-.658 2.37-.73 3.315-.159l4.109 2.486c.943.57 1.375 1.861.96 2.892 0 0-.45 1.135-.576 1.394-.824 1.691-2.769 2.382-2.769 2.382s-6.895 0-14.569-7.748C12.51 22.868 12.2 17.124 12.2 17.124z" fill-rule="evenodd"/></svg>
